!!!CDT:
!!!PTL: Il primo libro de madrigali a quattro voci
!!!PPP: Venice
!!!PPR: Amadino
!!!PDT: 1600
!!!RISM: P 5313
!!!rime: 166
!!!AGN: Madrigal
!!!SCT: Trm0166h
!!!SCA: Trm0166h
!!!voices:
!!!COM: Pozzo, Vincenzo dal
!!!OTL: Se taccio, il duol s'avanza 
**kern	**text
*I"Canto	*
*I'C	*
*oclefC1	*
*clefG2	*
*k[]	*
*C:	*
*omet(C|)	*
*M2/1	*
=1	=
4r	.
4g	Se
2f#X	tac-
2g	-cio,
4r	.
4a	Se
=2	=2
2b-X	tac-
2a	-cio, il
[1cc	duol
=3	=3
2cc]	.
2bnXi	s'a-
1a	-van-
=4	=4
2g	-za,
4r	.
4a	Se
2b-X	tac-
2a	-cio,
=5	=5
2r	.
2a	il
2a	duol
2g	s'a-
=6	=6
1f	-van-
2e	-za;
4r	.
4cc	Se
=7	=7
2b	par-
2cc	-lo,
1r	.
=8	=8
4r	.
4dd	ac-
4b	-cre-
4cc	-sco
4dd	l'i-
8ccL	.
8bJ	.
2a	.
=9	=9
2g	-ra,
4r	.
4g	ac-
4e	-cre-
4e	-sco
4a	l'i-
8gL	.
8fJ	.
=10	=10
2e	.
4f#X	-ra,
4a	<ac-
4g	-cre-
4cc	-sco
2a	l'i-
=11	=11
2b	-ra,>
1b	Don-
2b	-na
=12	=12
1cc	bel-
2a	-l'e
2a	cru-
=13	=13
1.g	-del,
2a	che
=14	=14
2f	mi
2f	mar-
[1e	-ti-
=15	=15
1e]	.
1e	-ra.
=16	=16
2r	.
2f	Ma
4e	pur
4.a	pren-
8g	-do
4f	spe-
=17	=17
8fL	-ran-
8g	.
8a	.
8fJ	.
2g	.
1a	-za,
=18	=18
4r	.
4a	Ma
4a	pur
4a	pren-
4cc	-do
4g	spe-
2g	-ran-
=19	=19
1g	-za
2r	.
2e	Che
=20	=20
4e	l'hu-
4e	-mil-
2e	-tà,
2r	.
2g	Che
=21	=21
4g	l'hu-
4g	-mil-
2.g	-tà
4f#X	vi
2f#X	pie-
=22	=22
2g	-ghi,
2e	Ché
4e	nel
4c	si-
4d	-len-
4d	-tio an-
=23	=23
2d	-cor
2f	son
2e	vo-
[2d	-ci e
=24	=24
2d]	.
2c#X	prie-
2d	-ghi.
2a	E
=25	=25
2b-X	pre-
2b-i	-go A-
[1a	-mor
=26	=26
1a]	.
2g	che
4g	spie-
4a	.
=27	=27
4b	.
4cc	.
2.dd	.
8ccL	.
8bJ	.
4a	.
4b	.
=28	=28
4cc#X	.
2dd	.
4cc#X	.
2dd	-ghi,
2a	E
=29	=29
2b-X	pre-
2b-i	-go A-
1a	-mor
=30	=30
2g	che
4g	spie-
4a	.
4bnXi	.
4cc	.
2dd	.
=31	=31
2dd	-ghi,
2d	che
4f	spie-
8eL	.
8dJ	.
2e	.
=32	=32
1f#X	-ghi
2r	.
2g	Nel
=33	=33
2a	mio
2g	do-
2g	-glio-
2fnXi	-s'a-
=34	=34
1e	-spet-
4d	-to
4f#X	Con
4f#X	let-
4g	-tre
=35	=35
2.g#X	di
4g#X	pie-
1a	-tà
=36	=36
4b	l'oc-
2gnXi	-cul-
4cc	-to af-
2cc	-fet-
2b	-to,
=37	=37
2r	.
2g	Con
4.a	let-
8a	-tre
4a	di
4a	pie-
=38	=38
2f#X	-tà
2f#X	l'oc-
2.g	-cul-
4a	-to af-
=39	=39
2f#X	-fet-
1g	.
2f#X	.
=40	=40
0gl	-to.
==	==
*-	*-
!!!RDF**kern: i = editorial accidental
!!!RDF**kern: l = terminal long
!!!ENC: Emiliano Ricciardi
!!!END:
!!!EED: Ricciardi, Emiliano
!!!EEV: 2020/01/19
!!!YEC: Copyright 2018 Emiliano Ricciardi, All Rights Reserved
!!!ONB: Translated from MusicXML on 2020/01/19
